X:1
T:Title
L:1/8
Q:1/4=100
M:4/4
K:C
V:1 treble nm="Grand Piano"
V:1
 E2 EE FE D2 | E2 E2 FE D2 | E2 F2 ^G2 A2 | ^GF/G/ F2 E4 | E2 EE FE D2 | E2 E2 FE D2 | %6
w: ?????~????? * * * * *||||||
 E2 F2 ^G2 A2 | ^GF/G/ F2 E4 | A4 BA^GF | ^G4 AGFE | A4 BA^GF | ^G4 AGFE | D2 E2 F2 A^G | %13
w: |||||||
 ^GFFE F/E/F/G/ FE | E8 |] %15
w: ||

